X:1
M:4/4
K:G
|:B/2A/2|AB/2c/2 B/2A/2G|FD/2E/2 B/2d/2d/2e/2|\
de/2d/2 B/2A/2A/2B/2|de d::
d/2d/2|e3/2f/2 e/2d/2B/2A/2|A/2F/2G/2A/2 B/2G/2F/2A/2|\
A/2B/2A/2G/2 D/2D/2G/2B/2|d/2d/2c/2B/2 A:|